X:1
T:McAfee's Confession
M:4/4
L:1/4
K:F
 z2 z D| D D F G| F D D D| D D F D| F G A A| c A G A| F D C D| D D F G|\
 F D D z|
